X:1522
L:1/8
Q:1/4=120
M:2/2
K:C
"^Fast" E2- | EGED C2 E2 | [Ec]2 AB [Ec]2 D2- | DEDC B,2 D2 | d2 Bc d2 E2- | EGED C2 E2 | 
 [Ec]2 AB [Ec]2 ([de-] | [ee])d e2 g2 e2 | !slide![Ec]2 A [Ec]2 :: gg | e2 c2 c2 c2 | 
 Gc[Ec][Ec] [Ec]2 dc | BcBA G2 [GB][GB] | GA[GB]G [GB]2 gg | eged c2 c2 | Gc[Ec][Ec] [Ec]2 ((ea-) | 
 a)aab ag e2 | !slide![Ec]3 ([E-A] [Ec]2) :|

